X: 1
T: Fiddler's Cramp
M: 4/4
L: 1/8
R: hornpipe
K: Fmaj
AB \
| cf df eg ce (3fga fc (3ABc AF | EF GA Bd c=B | c=B cd c2 A_B \ 
| cf df eg ce (3fga fc (3ABc AF | EF GA Bd cB | (3AGF GE F2 AB \ 
| cf df eg ce (3fga fc (3ABc AF | EF GA Bd c=B | c=B cd c2 A_B \ 
| cf df eg ce (3fga fc (3ABc AF | EF GA Bd cB | (3AGF GE F2 Ac \ 
| (3BAG (3AGF (3EGB (3dcB | (3Acf (3Acf (3agf (3edc | (3d^cd (3Bdf (3bag (3fed \
| (3c=Bc (3Acf (3agf (3edc | (3dba (3gfe (3dfe (3dcB | (3AGF (3AcA F2 Ac \
| (3BAG (3AGF (3EGB (3dcB | (3Acf (3Acf (3agf (3edc | (3d^cd (3Bdf (3bag (3fed \
| (3c=Bc (3Acf (3agf (3edc | (3dba (3gfe (3dfe (3dcB | (3AGF (3AcA F2 z2 |]
